symbols/web/4k_plus/materialsymbolsoutlined/4k_plus_gradN25_24px.svg

<svg xmlns="http://www.w3.org/2000/svg" height="24" width="24"><path d="M16.45 13.95h.975v-1.475H18.9v-.95h-1.475V10.05h-.975v1.475h-1.475v.95h1.475Zm-4.9.975h1.425v-2.2l1.75 2.2h1.75L14.15 12l2.325-2.925h-1.75l-1.75 2.2v-2.2H11.55Zm-2.95 0H10V13.45h1v-1.4h-1V9.075H8.6v2.975H7.1V9.075H5.7v4.375h2.9Zm-3.5 5.85q-.775 0-1.325-.55-.55-.55-.55-1.325V5.1q0-.775.55-1.325.55-.55 1.325-.55h13.8q.775 0 1.325.55.55.55.55 1.325v13.8q0 .775-.55 1.325-.55.55-1.325.55Zm0-1.875h13.8V5.1H5.1v13.8Zm0-13.8v13.8V5.1Z"/></svg>

<svg xmlns="http://www.w3.org/2000/svg" height="24" width="24"><path d="M16.45 13.95H17.425V12.475H18.9V11.525H17.425V10.05H16.45V11.525H14.975V12.475H16.45ZM11.55 14.925H12.975V12.725L14.725 14.925H16.475L14.15 12L16.475 9.075H14.725L12.975 11.275V9.075H11.55ZM8.6 14.925H10V13.45H11V12.05H10V9.075H8.6V12.05H7.1V9.075H5.7V13.45H8.6ZM5.1 20.775Q4.325 20.775 3.775 20.225Q3.225 19.675 3.225 18.9V5.1Q3.225 4.325 3.775 3.775Q4.325 3.225 5.1 3.225H18.9Q19.675 3.225 20.225 3.775Q20.775 4.325 20.775 5.1V18.9Q20.775 19.675 20.225 20.225Q19.675 20.775 18.9 20.775ZM5.1 18.9H18.9Q18.9 18.9 18.9 18.9Q18.9 18.9 18.9 18.9V5.1Q18.9 5.1 18.9 5.1Q18.9 5.1 18.9 5.1H5.1Q5.1 5.1 5.1 5.1Q5.1 5.1 5.1 5.1V18.9Q5.1 18.9 5.1 18.9Q5.1 18.9 5.1 18.9ZM5.1 5.1Q5.1 5.1 5.1 5.1Q5.1 5.1 5.1 5.1V18.9Q5.1 18.9 5.1 18.9Q5.1 18.9 5.1 18.9Q5.1 18.9 5.1 18.9Q5.1 18.9 5.1 18.9V5.1Q5.1 5.1 5.1 5.1Q5.1 5.1 5.1 5.1Z"/></svg>
